Numix-GalliumOS/32/mimetypes/application-users.svg

<?xml version="1.0" encoding="UTF-8" standalone="no"?>
<svg
   xmlns:dc="http://purl.org/dc/elements/1.1/"
   xmlns:cc="http://creativecommons.org/ns#"
   xmlns:rdf="http://www.w3.org/1999/02/22-rdf-syntax-ns#"
   xmlns:svg="http://www.w3.org/2000/svg"
   xmlns="http://www.w3.org/2000/svg"
   xmlns:sodipodi="http://sodipodi.sourceforge.net/DTD/sodipodi-0.dtd"
   xmlns:inkscape="http://www.inkscape.org/namespaces/inkscape"
   width="32"
   height="32"
   viewBox="0 0 32 32"
   id="svg2"
   version="1.1"
   inkscape:version="0.48.5 r10040"
   sodipodi:docname="application-users.svg">
  <metadata
     id="metadata16">
    <rdf:RDF>
      <cc:Work
         rdf:about="">
        <dc:format>image/svg+xml</dc:format>
        <dc:type
           rdf:resource="http://purl.org/dc/dcmitype/StillImage" />
      </cc:Work>
    </rdf:RDF>
  </metadata>
  <defs
     id="defs14" />
  <sodipodi:namedview
     pagecolor="#ffffff"
     bordercolor="#666666"
     borderopacity="1"
     objecttolerance="10"
     gridtolerance="10"
     guidetolerance="10"
     inkscape:pageopacity="0"
     inkscape:pageshadow="2"
     inkscape:window-width="1280"
     inkscape:window-height="970"
     id="namedview12"
     showgrid="true"
     inkscape:zoom="16"
     inkscape:cx="20.966505"
     inkscape:cy="19.526305"
     inkscape:window-x="0"
     inkscape:window-y="0"
     inkscape:window-maximized="1"
     inkscape:current-layer="svg2">
    <inkscape:grid
       type="xygrid"
       id="grid3004" />
  </sodipodi:namedview>
  <path
     style="fill:#6b7daa;fill-opacity:1"
     d="M 5.335888,2.974e-4 C 4.648414,3.124e-4 4,0.6767883 4,1.3940316 L 4,30.606268 C 4,31.282757 4.687474,32 5.335888,32 l 21.327332,0 c 0.648414,0 1.335888,-0.717243 1.335888,-1.393732 L 28,9.0000001 l -9,-9 z"
     id="path4-1"
     inkscape:connector-curvature="0"
     sodipodi:nodetypes="ssssssccs" />
  <path
     style="fill:#000000;fill-opacity:0.19599998"
     d="M 21,9.0000001 28,16 28,9.0000001 z"
     id="path6-4"
     inkscape:connector-curvature="0"
     sodipodi:nodetypes="cccc" />
  <path
     style="fill:#ffffff;fill-opacity:0.39200003"
     d="m 19.000306,2.974e-4 8.991594,8.9997027 -7.613262,0 c -0.672951,0 -1.378332,-0.7134896 -1.378332,-1.3864402 z"
     id="path8-6"
     inkscape:connector-curvature="0"
     sodipodi:nodetypes="ccssc" />
  <path
     style="fill:#ffffff"
     d="m 18,12 2,0 c 2,0 2,2 2,2 l 0,3 c 0,0.785427 -1,2 -1,2 l 0,1 2,1.429146 L 23,23 14,23 14,21.577583 17,20 17,19 c 0,0 -1.0041,-1.214573 -1,-2 l 0,-3 c 0,0 0,-2 2,-2 z M 12.887521,13.570854 14,13.617729 14,16.704017 C 14,17.489444 15,19 15,19 L 13,20.64372 13,22 9,22 9,21.404977 12,20 12,19.128158 c 0,0 -1.449911,-1.654342 -1.441711,-2.439769 l 0,-0.761259 c 0,-2.356279 2.329232,-2.356279 2.329232,-2.356276 z"
     id="path10"
     inkscape:connector-curvature="0"
     sodipodi:nodetypes="sscsccccccccccsccsccccccccsc" />
</svg>

<svg xmlns="http://www.w3.org/2000/svg" viewBox="0 0 32 32">
 <path d="m 5.336 0 c -0.687 0 -1.336 0.676 -1.336 1.394 l 0 29.21 c 0 0.676 0.687 1.394 1.336 1.394 l 21.327 0 c 0.648 0 1.336 -0.717 1.336 -1.394 l 0.001 -21.606 l -9 -9 z" style="fill:#6b7daa;fill-opacity:1"/>
 <path d="m 21 9 7 7 0 -7 z" style="fill:#000;fill-opacity:0.196"/>
 <path d="m 19 0 8.992 9 -7.613 0 c -0.673 0 -1.378 -0.713 -1.378 -1.386 z" style="fill:#fff;fill-opacity:0.392"/>
 <path d="m 18 12 2 0 c 2 0 2 2 2 2 l 0 3 c 0 0.785 -1 2 -1 2 l 0 1 2 1.429 l 0 1.571 -9 0 0 -1.422 3 -1.578 0 -1 c 0 0 -1 -1.215 -1 -2 l 0 -3 c 0 0 0 -2 2 -2 z m -5.112 1.571 1.112 0.047 0 3.086 c 0 0.785 1 2.296 1 2.296 l -2 1.644 0 1.356 -4 0 0 -0.595 3 -1.405 0 -0.872 c 0 0 -1.45 -1.654 -1.442 -2.44 l 0 -0.761 c 0 -2.356 2.329 -2.356 2.329 -2.356 z" style="fill:#fff"/>
</svg>
